; start gcode
;FLAVOR:Marlin
;TIME:12806
;Filament used: 8.53454m
;Layer height: 0.2
;MINX:32.256
;MINY:74.533
;MINZ:0.2
;MAXX:132.763
;MAXY:161.503
;MAXZ:12.96
;Generated with Cura_SteamEngine master
M140 S60
M105
M190 S60
M104 S195
M105
M109 S195
M82 ;absolute extrusion mode
; Ender 3 Custom Start G-code
G92 E0 ; Reset Extruder
G28 ; Home all axes
M106 S255.0
;Prime
G92 E0 ;Reset Extruder
G1 Z6.0 F3000 ;Move Z Axis up little to prevent scratching of Heat Bed
G1 X200.0 Y20.0 F5000.0 ;Move to start position
G1 X200.0 Y20.0 Z0.3 F5000.0
G1 X200.0 Y180.0 Z0.3 F1500.0 E15 ;Draw the first line
G1 X200.3 Y180.0 Z0.3 F5000.0 ;Move to side a little
G1 X200.3 Y20.0 Z0.3 F1500.0 E30 ;Draw the second line
G92 E0 ;Reset Extruder
; end of start gcode
; resume print
G0 Z12.72 F6000.0 ;Move up
G92 E2650.89136 ;Set extruder
G0 X72.536 Y123.124 Z10.72 ;Move to start position
; Remaining gcode
G1 F3600 X71.62 Y122.208 E2650.941
G0 F6000 X70.797 Y122.18
G1 F3600 X69.941 Y123.036 E2650.98738
G0 F6000 X74.421 Y121.652
G0 X75.694 Y112.181
;TYPE:SKIN
G1 F1800 X75.5 Y111.987 E2650.99264
G0 F6000 X75.226 Y111.147
G1 F1800 X74.782 Y110.42 E2650.99929
G0 F6000 X75.089 Y110.872
G1 F2700 E2648.49929
G0 F6000 X74.421 Y121.652
G0 X71.755 Y123.76
G0 X71.714 Y124.949
G0 X71.296 Y137.301
;TYPE:WALL-INNER
G1 F2700 E2650.99929
G1 F1800 X69.872 Y137.793 E2651.05702
G1 X68.68 Y138.123 E2651.10441
G1 X67.627 Y138.299 E2651.14531
G1 X66.624 Y138.363 E2651.18382
G1 X66.319 Y138.359 E2651.19551
G1 X65.44 Y121.882 E2651.82774
G1 X59.772 Y122.186 E2652.04522
G1 X59.718 Y121.142 E2652.08528
G1 X65.394 Y120.841 E2652.30306
G1 X64.85 Y110.741 E2652.69061
G1 X65.711 Y111.081 E2652.72608
G1 X67.382 Y111.834 E2652.79631
G1 X67.74 Y110.21 E2652.86002
G1 X67.779 Y109.707 E2652.87936
G1 X67.748 Y109.177 E2652.8997
G1 X67.586 Y108.52 E2652.92562
G1 X67.232 Y107.665 E2652.96108
G1 X66.517 Y106.369 E2653.01779
G1 X66.107 Y105.535 E2653.0534
G1 X65.927 Y105.007 E2653.07478
G1 X65.852 Y104.609 E2653.09029
G1 X65.844 Y104.275 E2653.1031
G1 X65.9 Y103.895 E2653.11781
G1 X66.019 Y103.505 E2653.13344
G1 X66.249 Y103.047 E2653.15307
G1 X66.628 Y102.492 E2653.17882
G1 X67.253 Y101.814 E2653.21416
G1 X67.998 Y101.175 E2653.25176
G1 X69.251 Y100.288 E2653.31058
G1 X70.706 Y99.334 E2653.37725
G1 X71.883 Y98.467 E2653.43326
G1 X72.74 Y97.703 E2653.47725
G1 X74.278 Y96.15 E2653.561
G1 X75.198 Y95.201 E2653.61164
G1 X75.535 Y94.712 E2653.63439
G1 X75.669 Y94.355 E2653.64901
G1 X75.766 Y93.909 E2653.66649
G1 X75.829 Y93.16 E2653.69529
G1 X75.873 Y92.782 E2653.70987
G1 X75.987 Y92.481 E2653.72221
G1 X76.125 Y92.4 E2653.72834
G1 X76.519 Y92.287 E2653.74404
G1 X77.033 Y92.073 E2653.76538
G1 X77.442 Y91.683 E2653.78703
G1 X77.564 Y91.41 E2653.79849
G1 X77.807 Y90.707 E2653.82699
G1 X76.294 Y88.379 E2653.93337
G1 X76.895 Y87.501 E2653.97414
G1 X77.489 Y86.77 E2654.01023
G1 X77.995 Y86.293 E2654.03687
G1 X78.316 Y86.066 E2654.05193
G1 X78.656 Y85.897 E2654.06648
G1 X79.022 Y85.784 E2654.08116
G1 X79.441 Y85.73 E2654.09735
G1 X79.957 Y85.74 E2654.11712
G1 X80.689 Y85.858 E2654.14553
G1 X80.922 Y85.924 E2654.15481
G1 X80.941 Y86.05 E2654.15969
G1 X80.719 Y86.287 E2654.17213
G1 X80.6 Y86.979 E2654.19904
G1 X80.815 Y87.492 E2654.22035
G1 X80.866 Y87.652 E2654.22678
G1 X80.92 Y88.089 E2654.24366
G1 X80.904 Y88.967 E2654.2773
G1 X80.831 Y89.706 E2654.30575
G1 X80.793 Y89.845 E2654.31128
G1 X80.466 Y90.507 E2654.33957
G1 X80.24 Y91.025 E2654.36122
G1 X80.11 Y91.606 E2654.38403
G1 X79.989 Y92.661 E2654.42472
G1 X79.891 Y93.41 E2654.45366
G1 X79.807 Y93.743 E2654.46682
G1 X79.586 Y94.142 E2654.4843
G1 X79.284 Y94.474 E2654.5015
G1 X78.485 Y95.16 E2654.54185
G1 X78.008 Y95.588 E2654.5664
G1 X75.76 Y97.969 E2654.69187
G1 X72.208 Y101.942 E2654.89606
G1 X71.49 Y102.734 E2654.93702
G1 X70.994 Y103.378 E2654.96817
G1 X70.705 Y103.895 E2654.99086
G1 X70.522 Y104.369 E2655.01033
G1 X70.417 Y104.869 E2655.02991
G1 X70.405 Y105.37 E2655.04911
G1 X70.465 Y105.866 E2655.06825
G1 X70.625 Y106.402 E2655.08968
G1 X70.961 Y107.096 E2655.11923
G1 X71.531 Y107.97 E2655.15921
G1 X71.863 Y108.435 E2655.1811
G1 X72.259 Y108.917 E2655.205
G1 X71.888 Y119.8 E2655.62223
G1 X66.89 Y119.631 E2655.81384
G1 X66.687 Y125.36 E2656.03349
G1 X71.693 Y125.53 E2656.22541
G1 X71.296 Y137.301 E2656.67668
G0 F6000 X71.687 Y137.593
G1 F1800 X71.431 Y137.678 E2656.68702
G1 X69.983 Y138.178 E2656.74571
G1 X68.767 Y138.514 E2656.79405
G1 X67.68 Y138.696 E2656.83628
G1 X66.631 Y138.763 E2656.87655
G1 X66.034 Y138.755 E2656.89943
G1 X65.94 Y138.749 E2656.90304
G1 X65.062 Y122.303 E2657.53408
G1 X59.794 Y122.584 E2657.73621
G1 X59.394 Y122.606 E2657.75156
G1 X59.374 Y122.207 E2657.76687
G1 X59.32 Y121.164 E2657.80688
G1 X59.298 Y120.764 E2657.82223
G1 X64.973 Y120.463 E2658.03998
G1 X64.452 Y110.763 E2658.41218
G1 X64.418 Y110.14 E2658.43608
G1 X65.87 Y110.714 E2658.49591
G1 X67.097 Y111.267 E2658.54748
G1 X67.343 Y110.151 E2658.59126
G1 X67.378 Y109.703 E2658.60848
G1 X67.351 Y109.237 E2658.62637
G1 X67.205 Y108.645 E2658.64973
G1 X66.871 Y107.839 E2658.68316
G1 X66.158 Y106.546 E2658.73973
G1 X65.736 Y105.688 E2658.77637
G1 X65.54 Y105.112 E2658.79968
G1 X65.453 Y104.65 E2658.81769
G1 X65.443 Y104.249 E2658.83306
G1 X65.508 Y103.81 E2658.85007
G1 X65.645 Y103.358 E2658.86816
G1 X65.905 Y102.841 E2658.89034
G1 X66.312 Y102.244 E2658.91802
G1 X66.976 Y101.525 E2658.95552
G1 X67.748 Y100.863 E2658.99449
G1 X69.032 Y99.953 E2659.05479
G1 X70.478 Y99.005 E2659.12104
G1 X71.631 Y98.156 E2659.1759
G1 X72.464 Y97.413 E2659.21867
G1 X73.992 Y95.87 E2659.30187
G1 X74.888 Y94.946 E2659.35119
G1 X75.178 Y94.526 E2659.37074
G1 X75.284 Y94.242 E2659.38236
G1 X75.37 Y93.849 E2659.39777
G1 X75.43 Y93.127 E2659.42553
G1 X75.48 Y92.704 E2659.44185
G1 X75.546 Y92.455 E2659.45172
G1 X75.689 Y92.193 E2659.46316
G1 X75.961 Y92.031 E2659.47529
G1 X76.386 Y91.909 E2659.49223
G1 X76.811 Y91.732 E2659.50987
G1 X77.109 Y91.448 E2659.52564
G1 X77.192 Y91.263 E2659.53341
G1 X77.365 Y90.761 E2659.55376
G1 X75.813 Y88.373 E2659.66288
G1 X76.571 Y87.266 E2659.71429
G1 X77.197 Y86.496 E2659.75231
G1 X77.741 Y85.984 E2659.78093
G1 X78.114 Y85.72 E2659.79844
G1 X78.504 Y85.525 E2659.81515
G1 X78.939 Y85.391 E2659.83259
G1 X79.418 Y85.329 E2659.8511
G1 X79.994 Y85.341 E2659.87317
G1 X80.776 Y85.467 E2659.90352
G1 X81.28 Y85.61 E2659.92359
G1 X81.366 Y86.182 E2659.94576
G1 X81.093 Y86.473 E2659.96105
G1 X81.014 Y86.932 E2659.97889
G1 X81.195 Y87.365 E2659.99687
G1 X81.258 Y87.565 E2660.00491
G1 X81.32 Y88.068 E2660.02433
G1 X81.304 Y88.988 E2660.05958
G1 X81.226 Y89.778 E2660.09
G1 X81.167 Y89.991 E2660.09847
G1 X80.829 Y90.676 E2660.12773
G1 X80.622 Y91.15 E2660.14755
G1 X80.505 Y91.673 E2660.16809
G1 X80.386 Y92.713 E2660.2082
G1 X80.285 Y93.483 E2660.23795
G1 X80.187 Y93.872 E2660.25332
G1 X80.07 Y94.135 E2660.26435
G1 X79.903 Y94.388 E2660.27597
G1 X79.564 Y94.761 E2660.29528
G1 X78.749 Y95.461 E2660.33644
G1 X78.288 Y95.875 E2660.36018
G1 X76.055 Y98.24 E2660.48481
G1 X72.504 Y102.211 E2660.68892
G1 X71.797 Y102.991 E2660.72926
G1 X71.329 Y103.599 E2660.75866
G1 X71.068 Y104.065 E2660.77912
G1 X70.907 Y104.483 E2660.79629
G1 X70.816 Y104.915 E2660.8132
G1 X70.806 Y105.351 E2660.82991
G1 X70.858 Y105.784 E2660.84662
G1 X70.999 Y106.257 E2660.86553
G1 X71.31 Y106.899 E2660.89287
G1 X71.861 Y107.744 E2660.93152
G1 X72.181 Y108.191 E2660.95258
G1 X72.664 Y108.78 E2660.98177
G1 X72.274 Y120.213 E2661.42008
G1 X67.276 Y120.044 E2661.6117
G1 X67.101 Y124.974 E2661.80071
G1 X72.106 Y125.144 E2661.99259
G1 X71.687 Y137.593 E2662.46985
G0 F6000 X72.078 Y137.884
;TYPE:WALL-OUTER
G1 F1800 X71.56 Y138.057 E2662.49078
G1 X70.093 Y138.563 E2662.55024
G1 X68.861 Y138.903 E2662.59921
G1 X67.723 Y139.094 E2662.64342
G1 X66.638 Y139.163 E2662.68508
G1 X66.022 Y139.155 E2662.70868
G1 X65.56 Y139.125 E2662.72642
G1 X64.684 Y122.724 E2663.35573
G1 X59.874 Y122.98 E2663.54029
G1 X59.015 Y123.027 E2663.57325
G1 X58.936 Y121.469 E2663.63302
G1 X58.878 Y120.386 E2663.67458
G1 X64.552 Y120.085 E2663.89229
G1 X63.983 Y109.491 E2664.29879
G1 X64.366 Y109.682 E2664.31519
G1 X64.539 Y109.758 E2664.32243
G1 X66.035 Y110.349 E2664.38406
G1 X66.812 Y110.7 E2664.41673
G1 X66.946 Y110.092 E2664.44058
G1 X66.977 Y109.699 E2664.45569
G1 X66.954 Y109.297 E2664.47112
G1 X66.824 Y108.77 E2664.49191
G1 X66.51 Y108.013 E2664.52331
G1 X65.799 Y106.723 E2664.57975
G1 X65.365 Y105.841 E2664.61742
G1 X65.153 Y105.217 E2664.64267
G1 X65.054 Y104.691 E2664.66318
G1 X65.042 Y104.223 E2664.68111
G1 X65.116 Y103.723 E2664.70048
G1 X65.272 Y103.209 E2664.72106
G1 X65.558 Y102.639 E2664.7455
G1 X65.998 Y101.995 E2664.77538
G1 X66.699 Y101.236 E2664.81497
G1 X67.498 Y100.551 E2664.85529
G1 X68.801 Y99.627 E2664.9165
G1 X70.25 Y98.676 E2664.98291
G1 X71.379 Y97.845 E2665.03662
G1 X72.188 Y97.123 E2665.07817
G1 X73.706 Y95.59 E2665.16083
G1 X74.578 Y94.692 E2665.20879
G1 X74.82 Y94.34 E2665.22516
G1 X74.899 Y94.128 E2665.23382
G1 X74.974 Y93.789 E2665.24713
G1 X75.031 Y93.094 E2665.27385
G1 X75.087 Y92.627 E2665.29187
G1 X75.171 Y92.307 E2665.30454
G1 X75.377 Y91.93 E2665.32101
G1 X75.634 Y91.726 E2665.33358
G1 X75.837 Y91.65 E2665.34188
G1 X76.254 Y91.531 E2665.3585
G1 X76.589 Y91.391 E2665.37241
G1 X76.776 Y91.213 E2665.3823
G1 X76.819 Y91.116 E2665.38637
G1 X76.923 Y90.815 E2665.39857
G1 X75.332 Y88.367 E2665.51044
G1 X76.247 Y87.031 E2665.57248
G1 X76.905 Y86.222 E2665.61244
G1 X77.487 Y85.675 E2665.64304
G1 X77.909 Y85.376 E2665.66285
G1 X78.353 Y85.153 E2665.68189
G1 X78.859 Y84.998 E2665.70217
G1 X79.394 Y84.928 E2665.72284
G1 X80.03 Y84.942 E2665.74722
G1 X80.864 Y85.076 E2665.77958
G1 X81.638 Y85.295 E2665.8104
G1 X81.791 Y86.314 E2665.84988
G1 X81.467 Y86.659 E2665.86802
G1 X81.426 Y86.898 E2665.87731
G1 X81.46 Y86.996 E2665.88128
G1 X81.569 Y87.221 E2665.89086
G1 X81.65 Y87.478 E2665.90119
G1 X81.72 Y88.047 E2665.92315
G1 X81.704 Y89.009 E2665.96002
G1 X81.621 Y89.852 E2665.99248
G1 X81.541 Y90.137 E2666.00382
G1 X81.192 Y90.845 E2666.03406
G1 X81.004 Y91.275 E2666.05204
G1 X80.9 Y91.74 E2666.0703
G1 X80.783 Y92.765 E2666.10983
G1 X80.679 Y93.556 E2666.1404
G1 X80.567 Y94.001 E2666.15798
G1 X80.421 Y94.329 E2666.17174
G1 X80.22 Y94.634 E2666.18573
G1 X79.844 Y95.048 E2666.20716
G1 X79.013 Y95.762 E2666.24914
G1 X78.567 Y96.162 E2666.27209
G1 X76.35 Y98.511 E2666.39585
G1 X72.8 Y102.48 E2666.59988
G1 X72.104 Y103.248 E2666.6396
G1 X71.664 Y103.82 E2666.66725
G1 X71.431 Y104.235 E2666.68548
G1 X71.292 Y104.597 E2666.70034
G1 X71.215 Y104.961 E2666.7146
G1 X71.207 Y105.332 E2666.72881
G1 X71.251 Y105.703 E2666.74313
G1 X71.373 Y106.112 E2666.75948
G1 X71.659 Y106.702 E2666.78461
G1 X72.191 Y107.518 E2666.82193
G1 X72.499 Y107.948 E2666.84219
G1 X73.069 Y108.644 E2666.87666
G1 X72.66 Y120.626 E2667.33603
G1 X67.662 Y120.457 E2667.52764
G1 X67.515 Y124.588 E2667.68602
G1 X72.519 Y124.758 E2667.87787
G1 X72.201 Y134.218 E2668.24054
G1 X72.189 Y134.533 E2668.25261
G1 X72.186 Y134.667 E2668.25775
G1 X72.078 Y137.884 E2668.38108
G0 F6000 X71.803 Y137.679
G0 X71.23 Y136.902
;TYPE:FILL
G1 F3600 X66.045 Y131.717 E2668.66204
G0 F6000 X66.185 Y134.334
G1 F3600 X71.494 Y129.025 E2668.94972
G0 F6000 X71.475 Y129.605
G1 F3600 X67.331 Y125.461 E2669.17426
G1 X67.511 Y125.466
G1 X65.802 Y127.175 E2669.26687
G0 F6000 X66.628 Y124.758
G1 F3600 X65.618 Y123.748 E2669.3216
G0 F6000 X64.899 Y122.485
G0 X63.76 Y121.89
G1 F3600 X62.921 Y121.051 E2669.36706
G0 F6000 X63.532 Y121.903
G1 F3600 X64.466 Y120.968 E2669.4177
G0 F6000 X65.428 Y120.007
G1 F3600 X72.024 Y113.411 E2669.77511
G0 F6000 X71.97 Y115.016
G1 F3600 X67.701 Y110.747 E2670.00643
G0 F6000 X67.83 Y110.063
G1 F3600 X70.847 Y107.046 E2670.16991
G0 F6000 X70.39 Y105.894
G1 F3600 X66.856 Y102.36 E2670.36141
G0 F6000 X65.927 Y104.424
G1 F3600 X71.522 Y98.829 E2670.66458
G0 F6000 X71.145 Y99.107
G1 F3600 X72.988 Y100.95 E2670.76445
G0 F6000 X76.572 Y96.992
G1 F3600 X75.048 Y95.467 E2670.84706
G0 F6000 X75.611 Y94.74
G1 F3600 X80.761 Y89.59 E2671.12612
G0 F6000 X77.875 Y90.753
G1 F3600 X79.895 Y92.773 E2671.23557
G0 F6000 X80.741 Y86.063
G0 X80.683 Y86.019
G1 F3600 X80.584 Y85.92 E2671.24094
G0 F6000 X66.971 Y111.019
G0 X66.411 Y111.482
G1 F3600 X65.044 Y112.849 E2671.31501
G0 F6000 X65.201 Y115.789
G1 F3600 X69.034 Y119.621 E2671.52268
G0 F6000 X67.442 Y120.221
G0 X67.279 Y124.808
G0 X71.231 Y136.83
G1 F3600 X70.608 Y137.453 E2671.55644
G1 F2700 E2669.05644
G0 F6000 X67.279 Y124.808
G0 X67.442 Y120.221
G0 X71.062 Y104.529
G0 X71.464 Y103.687
G0 X72.12 Y102.913
G0 X79.913 Y94.055
;TYPE:SKIN
G1 F2700 E2671.55644
G1 F1800 X79.85 Y93.992 E2671.55815
G0 F6000 X75.81 Y92.498
G0 X75.794 Y92.482
G1 F1800 X75.779 Y91.901 E2671.5607
G0 F6000 X75.791 Y91.987
G0 X76.721 Y91.594
G0 X80.552 Y86.209
G1 F1800 X80.497 Y86.154 E2671.56219
G0 F6000 X80.64 Y86.464
G1 F2700 E2669.06219
G0 F6000 X71.213 Y104.134
G0 X70.976 Y104.934
G0 X67.442 Y120.221
G0 X65.688 Y137.746
G0 X63.727 Y137.849
G0 X63.129 Y137.882
;TYPE:WALL-INNER
G1 F2700 E2671.56219
G1 F1800 X62.868 Y137.815 E2671.57251
G1 X61.38 Y137.306 E2671.63277
G1 X59.8 Y136.614 E2671.69886
G1 X58.164 Y135.73 E2671.77011
G1 X56.532 Y134.686 E2671.84434
G1 X56.298 Y134.5 E2671.85579
G1 X55.919 Y134.148 E2671.87561
G1 X55.138 Y133.403 E2671.91697
G1 X54.629 Y133.03 E2671.94115
G1 X54.263 Y132.833 E2671.95707
G1 X53.843 Y132.681 E2671.97419
G1 X53.395 Y132.591 E2671.99169
G1 X52.924 Y132.569 E2672.00976
G1 X52.303 Y132.633 E2672.03368
G1 X51.389 Y132.875 E2672.06991
G1 X49.649 Y133.489 E2672.14061
G1 X48.902 Y133.655 E2672.16993
G1 X48.532 Y133.674 E2672.18412
G1 X48.244 Y133.646 E2672.19521
G1 X47.85 Y133.537 E2672.21087
G1 X47.071 Y133.188 E2672.24358
G1 X46.613 Y132.956 E2672.26325
G1 X46.011 Y132.621 E2672.28965
G1 X45.431 Y132.18 E2672.31756
G1 X44.825 Y131.532 E2672.35156
G1 X44.056 Y130.452 E2672.40236
G1 X43.256 Y129.257 E2672.45746
G1 X41.798 Y127.399 E2672.54795
G1 X40.882 Y126.184 E2672.60625
G1 X40.299 Y125.232 E2672.64903
G1 X39.89 Y124.344 E2672.68649
G1 X39.615 Y123.432 E2672.72298
G1 X39.566 Y123.138 E2672.7344
G1 X39.766 Y122.941 E2672.74516
G1 X38.89 Y118.82 E2672.90659
G1 X39.008 Y118.849 E2672.91124
G1 X39.625 Y116.503 E2673.00419
G1 X39.891 Y114.711 E2673.0736
G1 X40.212 Y111.243 E2673.20705
G1 X40.508 Y109.102 E2673.28986
G1 X40.675 Y107.236 E2673.36165
G1 X40.697 Y105.491 E2673.42851
G1 X40.584 Y103.935 E2673.48829
G1 X40.317 Y102.569 E2673.54162
G1 X40.027 Y101.593 E2673.58063
G1 X39.857 Y101.238 E2673.59571
G1 X40.252 Y101.236 E2673.60379
G1 X40.962 Y99.822 E2673.66442
G1 X40.352 Y98.876 E2673.70755
G1 X40.69 Y99.05 E2673.72211
G1 X41.186 Y98.798 E2673.74343
G1 X42.416 Y100.105 E2673.8122
G1 X43.686 Y101.668 E2673.88936
G1 X44.918 Y103.448 E2673.97231
G1 X45.986 Y105.312 E2674.05462
G1 X46.85 Y107.066 E2674.12954
G1 X47.592 Y107.062 E2674.15797
G1 X47.827 Y107.819 E2674.18834
G1 X47.881 Y108.066 E2674.19803
G1 X47.932 Y109.295 E2674.24516
G1 X47.857 Y111.31 E2674.32242
G1 X47.571 Y113.854 E2674.4205
G1 X47.339 Y115.474 E2674.48321
G1 X48.152 Y116.27 E2674.5268
G1 X46.933 Y119.993 E2674.67691
G1 X47.853 Y120.946 E2674.72766
G1 X47.241 Y123.01 E2674.81015
G1 X47.695 Y127.303 E2674.97555
G1 X49.71 Y128.308 E2675.06183
G1 X49.721 Y128.25 E2675.06409
G1 X52.153 Y131.296 E2675.21344
G1 X53.368 Y131.031 E2675.26109
G1 X53.827 Y129.185 E2675.33397
G1 X52.932 Y128.237 E2675.38392
G1 X52.933 Y128.189 E2675.38576
G1 X53.241 Y126.523 E2675.45068
G1 X53.493 Y124.361 E2675.53408
G1 X53.66 Y123.072 E2675.58388
G1 X53.951 Y121.875 E2675.63108
G1 X54.695 Y119.675 E2675.72006
G1 X55.272 Y117.989 E2675.78834
G1 X55.602 Y116.639 E2675.84159
G1 X55.781 Y115.215 E2675.89658
G1 X55.766 Y113.901 E2675.94693
G1 X55.545 Y112.602 E2675.99742
G1 X55.17 Y111.395 E2676.04585
G1 X54.616 Y110.214 E2676.09583
G1 X53.891 Y109.001 E2676.14997
G1 X52.684 Y107.349 E2676.22837
G1 X52.327 Y106.959 E2676.24863
G1 X51.745 Y106.511 E2676.27677
G1 X51.004 Y106 E2676.31126
G1 X50.732 Y105.76 E2676.32515
G1 X50.639 Y105.648 E2676.33073
G1 X50.5 Y105.408 E2676.34136
G1 X50.267 Y104.937 E2676.36149
G1 X50.055 Y104.577 E2676.3775
