; start gcode
;FLAVOR:Marlin
;TIME:10051
;Filament used: 5.57972m
;Layer height: 0.2
;MINX:47.819
;MINY:51.451
;MINZ:0.2
;MAXX:106.173
;MAXY:89.804
;MAXZ:39.8
;Generated with Cura_SteamEngine 5.4.0
M140 S65
M105
M190 S65
M104 S210
M105
M109 S210
M82 ;absolute extrusion mode
; Ender 3 Custom Start G-code
G92 E0 ; Reset Extruder
G28 ; Home all axes
M106 S255.0
;Prime
G92 E0 ;Reset Extruder
G1 Z6.0 F3000 ;Move Z Axis up little to prevent scratching of Heat Bed
G1 X200.0 Y20.0 F5000.0 ;Move to start position
G1 X200.0 Y20.0 Z0.3 F5000.0
G1 X200.0 Y180.0 Z0.3 F1500.0 E15 ;Draw the first line
G1 X200.3 Y180.0 Z0.3 F5000.0 ;Move to side a little
G1 X200.3 Y20.0 Z0.3 F1500.0 E30 ;Draw the second line
G92 E0 ;Reset Extruder
; end of start gcode
; resume print
G0 Z25.88 F6000.0 ;Move up
G92 E3853.07468 ;Set extruder
G0 X51.491 Y87.74 Z23.88 ;Move to start position
; Remaining gcode
G1 X51.846 Y87.854 E3853.08897
G1 X52.275 Y87.923 E3853.10561
G1 X54.586 Y87.927 E3853.19416
G1 X54.585 Y86.128 E3853.26309
G1 X54.785 Y85.927 E3853.27396
G1 X55.008 Y85.926 E3853.2825
G0 F6000 X54.438 Y85.689
G0 X53.334 Y85.236
G0 X53.488 Y85.083
;TYPE:FILL
G1 F3600 X51.398 Y87.172 E3853.39572
G0 F6000 X51.51 Y86.979
G0 X53.082 Y87.225
G0 X53.081 Y87.442
G1 F3600 X50.18 Y84.541 E3853.55292
G0 F6000 X50.181 Y83.864
G1 F3600 X51.225 Y82.82 E3853.60949
G0 F6000 X51.071 Y82.973
G0 X50.66 Y82.473
G0 X50.596 Y80.651
G0 X50.816 Y80.651
G1 F3600 X50.18 Y80.016 E3853.64393
G0 F6000 X50.181 Y79.339
G1 F3600 X50.816 Y78.704 E3853.67833
G0 F6000 X50.596 Y78.704
G0 X50.596 Y76.126
G0 X50.816 Y76.126
G1 F3600 X50.18 Y75.49 E3853.7128
G0 F6000 X50.181 Y74.814
G1 F3600 X50.816 Y74.179 E3853.7472
G0 F6000 X50.596 Y74.179
G0 X50.596 Y71.6
G0 X50.816 Y71.6
G1 F3600 X50.18 Y70.965 E3853.78164
G0 F6000 X50.18 Y70.289
G1 F3600 X50.816 Y69.653 E3853.8161
G0 F6000 X50.596 Y69.653
G0 X50.596 Y67.075
G0 X50.816 Y67.075
G1 F3600 X50.179 Y66.439 E3853.85059
G0 F6000 X50.18 Y65.763
G1 F3600 X50.816 Y65.128 E3853.88503
G0 F6000 X50.596 Y65.128
G0 X50.596 Y62.549
G0 X50.816 Y62.549
G1 F3600 X50.179 Y61.913 E3853.91952
G0 F6000 X50.18 Y61.238
G1 F3600 X50.816 Y60.602 E3853.95398
G0 F6000 X50.596 Y60.602
G0 X50.66 Y58.781
G0 X51.072 Y58.28
G0 X51.226 Y58.434
G1 F3600 X50.179 Y57.388 E3854.01069
G0 F6000 X50.18 Y56.712
G1 F3600 X53.083 Y53.809 E3854.16799
G0 F6000 X53.083 Y54.031
G0 X51.514 Y54.274
G0 X51.409 Y54.092
G1 F3600 X53.488 Y56.171 E3854.28064
G0 F6000 X53.335 Y56.017
G0 X55.15 Y54.291
G0 X55.65 Y54.029
G0 X55.65 Y53.807
G1 F3600 X56.289 Y54.446 E3854.31527
G1 F2700 E3851.81527
G0 F6000 X56.108 Y54.257
G0 X56.564 Y54.713
G0 X56.564 Y55.792
G0 X57.478 Y85.462
G0 X57.478 Y86.541
G0 X58.504 Y87.257
G0 X58.774 Y87.527
;TYPE:WALL-INNER
G1 F2700 E3854.31527
G1 F1800 X58.774 Y86.727 E3854.34592
G1 X57.664 Y86.727 E3854.38845
G1 X57.664 Y87.527 E3854.41911
G1 X58.774 Y87.527 E3854.46164
G0 F6000 X59.174 Y87.927
;TYPE:WALL-OUTER
G1 F1800 X59.174 Y86.327 E3854.52294
G1 X57.264 Y86.327 E3854.59612
G1 X57.264 Y87.927 E3854.65743
G1 X59.174 Y87.927 E3854.73061
G1 F2700 E3852.23061
G0 F6000 X58.904 Y87.657
G0 X58.955 Y87.252
G0 X61.611 Y87.256
G0 X62.631 Y87.257
G0 X62.901 Y87.527
;TYPE:WALL-INNER
G1 F2700 E3854.73061
G1 F1800 X62.901 Y86.727 E3854.76126
G1 X61.792 Y86.727 E3854.80376
G1 X61.792 Y87.527 E3854.83441
G1 X62.901 Y87.527 E3854.8769
G0 F6000 X63.301 Y87.927
;TYPE:WALL-OUTER
G1 F1800 X63.301 Y86.327 E3854.93821
G1 X61.392 Y86.327 E3855.01135
G1 X61.392 Y87.927 E3855.07266
G1 X63.301 Y87.927 E3855.1458
G0 F6000 X63.031 Y87.657
G0 X62.136 Y87.227
G0 X62.136 Y87.446
;TYPE:FILL
G1 F3600 X61.871 Y87.182 E3855.16013
G1 F2700 E3852.66013
G0 F6000 X62.091 Y87.183
G0 X63.081 Y87.257
G0 X64.166 Y87.257
G0 X65.114 Y87.257
G0 X66.199 Y87.257
G0 X67.218 Y87.257
G0 X67.488 Y87.527
;TYPE:WALL-INNER
G1 F2700 E3855.16013
G1 F1800 X67.488 Y86.727 E3855.19079
G1 X66.379 Y86.727 E3855.23328
G1 X66.379 Y87.527 E3855.26393
G1 X67.488 Y87.527 E3855.30642
G0 F6000 X67.888 Y87.927
;TYPE:WALL-OUTER
G1 F1800 X67.888 Y86.327 E3855.36773
G1 X65.979 Y86.327 E3855.44087
G1 X65.979 Y87.927 E3855.50218
G1 X67.888 Y87.927 E3855.57532
G0 F6000 X67.618 Y87.657
G0 X66.661 Y87.227
G0 X66.661 Y87.445
;TYPE:FILL
G1 F3600 X66.458 Y87.243 E3855.58629
G1 F2700 E3853.08629
G0 F6000 X66.679 Y87.243
G0 X67.669 Y87.252
G0 X70.325 Y87.256
G0 X71.345 Y87.257
G0 X71.615 Y87.527
;TYPE:WALL-INNER
G1 F2700 E3855.58629
G1 F1800 X71.615 Y86.727 E3855.61695
G1 X70.506 Y86.727 E3855.65944
G1 X70.506 Y87.527 E3855.69009
G1 X71.615 Y87.527 E3855.73258
G0 F6000 X72.015 Y87.927
;TYPE:WALL-OUTER
G1 F1800 X72.015 Y86.327 E3855.79389
G1 X70.106 Y86.327 E3855.86703
G1 X70.106 Y87.927 E3855.92834
G1 X72.015 Y87.927 E3856.00148
G0 F6000 X71.187 Y87.446
;TYPE:FILL
G1 F3600 X70.586 Y86.845 E3856.03405
G1 F2700 E3853.53405
G0 F6000 X70.776 Y86.997
G0 X71.795 Y87.257
G0 X72.88 Y87.257
G0 X73.828 Y87.257
G0 X74.913 Y87.257
G0 X75.932 Y87.257
G0 X76.202 Y87.527
;TYPE:WALL-INNER
G1 F2700 E3856.03405
G1 F1800 X76.202 Y86.727 E3856.0647
G1 X75.093 Y86.727 E3856.10719
G1 X75.093 Y87.527 E3856.13785
G1 X76.202 Y87.527 E3856.18034
G0 F6000 X76.602 Y87.927
;TYPE:WALL-OUTER
G1 F1800 X76.602 Y86.327 E3856.24164
G1 X74.693 Y86.327 E3856.31479
G1 X74.693 Y87.927 E3856.37609
G1 X76.602 Y87.927 E3856.44924
G0 F6000 X76.332 Y87.657
G0 X75.712 Y87.227
G0 X75.712 Y87.445
;TYPE:FILL
G1 F3600 X75.172 Y86.906 E3856.47847
G1 F2700 E3853.97847
G0 F6000 X75.363 Y86.997
G0 X76.383 Y87.252
G0 X79.039 Y87.256
G0 X80.059 Y87.257
G0 X80.329 Y87.527
;TYPE:WALL-INNER
G1 F2700 E3856.47847
G1 F1800 X80.329 Y86.727 E3856.50912
G1 X79.22 Y86.727 E3856.55162
G1 X79.22 Y87.527 E3856.58227
G1 X80.329 Y87.527 E3856.62476
G0 F6000 X80.729 Y87.927
;TYPE:WALL-OUTER
G1 F1800 X80.729 Y86.327 E3856.68607
G1 X78.82 Y86.327 E3856.75921
G1 X78.82 Y87.927 E3856.82052
G1 X80.729 Y87.927 E3856.89366
G0 F6000 X80.237 Y87.445
;TYPE:FILL
G1 F3600 X79.598 Y86.806 E3856.92829
G1 F2700 E3854.42829
G0 F6000 X79.598 Y87.027
G0 X80.509 Y87.257
G0 X81.594 Y87.257
G0 X82.542 Y87.257
G0 X83.627 Y87.257
G0 X84.646 Y87.257
G0 X84.916 Y87.527
;TYPE:WALL-INNER
G1 F2700 E3856.92829
G1 F1800 X84.916 Y86.727 E3856.95894
G1 X83.807 Y86.727 E3857.00143
G1 X83.807 Y87.527 E3857.03208
G1 X84.916 Y87.527 E3857.07457
G0 F6000 X85.316 Y87.927
;TYPE:WALL-OUTER
G1 F1800 X85.316 Y86.327 E3857.13588
G1 X83.407 Y86.327 E3857.20902
G1 X83.407 Y87.927 E3857.27033
G1 X85.316 Y87.927 E3857.34347
G0 F6000 X84.763 Y87.446
;TYPE:FILL
G1 F3600 X84.123 Y86.805 E3857.37818
G1 F2700 E3854.87818
G0 F6000 X84.123 Y87.027
G0 X85.097 Y87.252
G0 X87.753 Y87.256
G0 X88.773 Y87.257
G0 X89.043 Y87.527
;TYPE:WALL-INNER
G1 F2700 E3857.37818
G1 F1800 X89.043 Y86.727 E3857.40883
G1 X87.934 Y86.727 E3857.45132
G1 X87.934 Y87.527 E3857.48198
G1 X89.043 Y87.527 E3857.52447
G0 F6000 X89.443 Y87.927
;TYPE:WALL-OUTER
G1 F1800 X89.443 Y86.327 E3857.58577
G1 X87.534 Y86.327 E3857.65892
G1 X87.534 Y87.927 E3857.72022
G1 X89.443 Y87.927 E3857.79337
G0 F6000 X88.962 Y87.119
;TYPE:FILL
G1 F3600 X88.649 Y86.807 E3857.8103
G1 F2700 E3855.3103
G0 F6000 X88.649 Y87.027
G0 X89.223 Y87.257
G0 X90.308 Y87.257
G0 X91.256 Y87.257
G0 X92.341 Y87.257
G0 X93.36 Y87.257
G0 X93.63 Y87.527
;TYPE:WALL-INNER
G1 F2700 E3857.8103
G1 F1800 X93.63 Y86.727 E3857.84095
G1 X92.521 Y86.727 E3857.88345
G1 X92.521 Y87.527 E3857.9141
G1 X93.63 Y87.527 E3857.95659
G0 F6000 X94.03 Y87.927
;TYPE:WALL-OUTER
G1 F1800 X94.03 Y86.327 E3858.0179
G1 X92.121 Y86.327 E3858.09104
G1 X92.121 Y87.927 E3858.15235
G1 X94.03 Y87.927 E3858.22549
G0 F6000 X93.549 Y87.181
;TYPE:FILL
G1 F3600 X93.175 Y86.807 E3858.24576
G1 F2700 E3855.74576
G0 F6000 X93.175 Y87.027
G0 X93.811 Y87.252
G0 X96.467 Y87.256
G0 X97.486 Y87.257
G0 X97.756 Y87.527
;TYPE:WALL-INNER
G1 F2700 E3858.24576
G1 F1800 X97.756 Y86.727 E3858.27641
G1 X96.648 Y86.727 E3858.31886
G1 X96.648 Y87.527 E3858.34952
G1 X97.756 Y87.527 E3858.39197
G0 F6000 X98.156 Y87.927
;TYPE:WALL-OUTER
G1 F1800 X98.156 Y86.327 E3858.45327
G1 X96.248 Y86.327 E3858.52638
G1 X96.248 Y87.927 E3858.58769
G1 X98.156 Y87.927 E3858.66079
G0 F6000 X97.886 Y87.657
G0 X97.02 Y87.027
G0 X97.02 Y86.806
;TYPE:FILL
G1 F3600 X96.727 Y87.099 E3858.67667
G1 F2700 E3856.17667
G0 F6000 X96.947 Y87.1
G0 X97.937 Y87.252
G0 X99.916 Y87.252
G0 X100.366 Y87.256
G0 X100.096 Y87.526
;TYPE:WALL-INNER
G1 F2700 E3858.67667
G1 F1800 X101.684 Y87.523 E3858.73751
G1 X102.053 Y87.464 E3858.75183
G1 X102.357 Y87.366 E3858.76407
G1 X102.793 Y87.143 E3858.78283
G1 X103.054 Y86.955 E3858.79516
G1 X103.286 Y86.723 E3858.80773
G1 X103.478 Y86.486 E3858.81942
G1 X103.629 Y86.222 E3858.83107
G1 X103.736 Y85.982 E3858.84114
G1 X103.845 Y85.651 E3858.85449
G1 X103.892 Y85.248 E3858.87004
G1 X103.892 Y56.001 E3859.99066
G1 X103.853 Y55.629 E3860.00499
G1 X103.736 Y55.27 E3860.01945
G1 X103.576 Y54.915 E3860.03437
G1 X103.36 Y54.62 E3860.04838
G1 X103.191 Y54.432 E3860.05807
G1 X103.003 Y54.263 E3860.06776
G1 X102.708 Y54.047 E3860.08176
G1 X102.353 Y53.887 E3860.09668
G1 X101.993 Y53.77 E3860.11119
G1 X101.622 Y53.732 E3860.12548
G1 X66.614 Y53.727 E3861.46683
G1 X66.615 Y54.527 E3861.49749
G1 X98.496 Y54.527 E3862.71903
G1 X98.921 Y54.702 E3862.73664
G1 X102.921 Y58.702 E3862.95338
G1 X103.096 Y59.127 E3862.97099
G1 X103.096 Y82.216 E3863.85567
G1 X102.921 Y82.551 E3863.87015
G1 X99.781 Y85.692 E3864.04032
G1 X100.02 Y85.832 E3864.05093
G1 X100.096 Y86.092 E3864.06131
G1 X100.096 Y87.526 E3864.11626
G0 F6000 X99.696 Y87.927
;TYPE:WALL-OUTER
G1 F1800 X101.716 Y87.923 E3864.19365
G1 X102.146 Y87.854 E3864.21034
G1 X102.501 Y87.74 E3864.22463
G1 X102.768 Y87.62 E3864.23584
G1 X103.011 Y87.479 E3864.24661
G1 X103.314 Y87.261 E3864.26091
G1 X103.584 Y86.991 E3864.27554
G1 X103.809 Y86.712 E3864.28927
G1 X103.986 Y86.404 E3864.30288
G1 X104.11 Y86.127 E3864.31451
G1 X104.238 Y85.737 E3864.33024
G1 X104.292 Y85.271 E3864.34821
G1 X104.292 Y55.98 E3865.47052
G1 X104.261 Y55.685 E3865.48188
G1 X104.205 Y55.42 E3865.49226
G1 X104.11 Y55.126 E3865.5041
G1 X103.986 Y54.85 E3865.51569
G1 X103.845 Y54.604 E3865.52656
G1 X103.671 Y54.368 E3865.53779
G1 X103.475 Y54.148 E3865.54908
G1 X103.255 Y53.952 E3865.56037
G1 X103.019 Y53.778 E3865.57161
G1 X102.773 Y53.637 E3865.58247
G1 X102.497 Y53.513 E3865.59406
G1 X102.211 Y53.42 E3865.60559
G1 X101.938 Y53.362 E3865.61628
G1 X101.643 Y53.332 E3865.62764
G1 X66.214 Y53.327 E3866.98513
G1 X66.215 Y54.927 E3867.04643
G1 X98.496 Y54.927 E3868.2833
G1 X98.638 Y54.985 E3868.28918
G1 X102.638 Y58.985 E3868.50592
G1 X102.696 Y59.127 E3868.5118
G1 X102.694 Y82.162 E3869.3944
G1 X102.638 Y82.269 E3869.39903
G1 X98.982 Y85.927 E3869.59719
G1 X99.496 Y85.927 E3869.61689
G1 X99.696 Y86.042 E3869.62572
G1 X99.696 Y87.927 E3869.69795
G0 F6000 X99.966 Y87.656
G0 X100.906 Y87.224
G0 X100.906 Y87.445
;TYPE:FILL
G1 F3600 X103.811 Y84.54 E3869.85536
G0 F6000 X103.811 Y83.866
G1 F3600 X102.764 Y82.819 E3869.9121
G0 F6000 X102.919 Y82.975
G0 X103.332 Y82.473
G0 X103.396 Y80.651
G0 X103.175 Y80.651
G1 F3600 X103.811 Y80.015 E3869.94656
G0 F6000 X103.811 Y79.34
G1 F3600 X103.174 Y78.704 E3869.98105
G0 F6000 X103.396 Y78.704
G0 X103.396 Y76.125
G0 X103.175 Y76.125
G1 F3600 X103.811 Y75.49 E3870.01548
G0 F6000 X103.811 Y74.815
G1 F3600 X103.174 Y74.179 E3870.04997
G0 F6000 X103.396 Y74.179
G0 X103.396 Y71.6
G0 X103.175 Y71.6
G1 F3600 X103.811 Y70.964 E3870.08444
G0 F6000 X103.811 Y70.289
G1 F3600 X103.174 Y69.653 E3870.11893
G0 F6000 X103.396 Y69.653
G0 X103.396 Y67.074
G0 X103.175 Y67.074
G1 F3600 X103.811 Y66.439 E3870.15336
G0 F6000 X103.811 Y65.764
G1 F3600 X103.174 Y65.128 E3870.18785
G0 F6000 X103.396 Y65.128
G0 X103.396 Y62.549
G0 X103.175 Y62.549
G1 F3600 X103.811 Y61.913 E3870.22231
G0 F6000 X103.811 Y61.238
G1 F3600 X103.174 Y60.602 E3870.2568
G0 F6000 X103.396 Y60.602
G0 X103.332 Y58.781
G0 X102.919 Y58.279
G0 X102.764 Y58.434
G1 F3600 X103.811 Y57.388 E3870.31351
G0 F6000 X103.811 Y56.713
G1 F3600 X100.909 Y53.812 E3870.47073
G0 F6000 X100.908 Y54.03
G0 X102.476 Y54.272
G0 X102.582 Y54.091
G1 F3600 X100.501 Y56.171 E3870.58347
G0 F6000 X100.656 Y56.016
G0 X98.842 Y54.291
G0 X98.335 Y54.03
G0 X98.336 Y53.811
G1 F3600 X97.7 Y54.447 E3870.61793
G0 F6000 X97.019 Y54.447
G1 F3600 X96.383 Y53.811 E3870.65239
G0 F6000 X96.382 Y54.03
G0 X93.81 Y54.03
G0 X93.811 Y53.81
G1 F3600 X93.175 Y54.447 E3870.68688
G0 F6000 X92.493 Y54.447
G1 F3600 X91.858 Y53.811 E3870.72132
G0 F6000 X91.857 Y54.029
G0 X89.286 Y54.029
G0 X89.287 Y53.81
G1 F3600 X88.649 Y54.447 E3870.75586
G0 F6000 X87.968 Y54.447
G1 F3600 X87.331 Y53.81 E3870.79038
G0 F6000 X87.33 Y54.029
G0 X84.761 Y54.029
G0 X84.762 Y53.809
G1 F3600 X84.124 Y54.447 E3870.82495
G0 F6000 X83.442 Y54.447
G1 F3600 X82.805 Y53.81 E3870.85947
G0 F6000 X82.804 Y54.028
G0 X80.236 Y54.028
G0 X80.237 Y53.808
G1 F3600 X79.599 Y54.447 E3870.89406
G0 F6000 X78.917 Y54.447
G1 F3600 X78.279 Y53.809 E3870.92863
G0 F6000 X78.278 Y54.028
G0 X75.711 Y54.028
G0 X75.712 Y53.807
G1 F3600 X75.073 Y54.447 E3870.96329
G0 F6000 X74.391 Y54.447
G1 F3600 X73.753 Y53.808 E3870.99789
G0 F6000 X73.752 Y54.027
G0 X71.186 Y54.027
G0 X71.187 Y53.807
G1 F3600 X70.548 Y54.447 E3871.03254
G0 F6000 X69.866 Y54.447
G1 F3600 X69.227 Y53.807 E3871.06719
G1 F2700 E3868.56719
G0 F6000 X69.226 Y54.027
G0 X98.842 Y54.291
G0 X103.332 Y58.781
G0 X103.332 Y82.473
G0 X100.656 Y85.238
G0 X100.501 Y85.082
G1 F2700 E3871.06719
G1 F3600 X102.58 Y87.161 E3871.17984
G0 F6000 X102.327 Y86.72
G1 F2700 E3868.67984
;MESH:NONMESH
G0 F300 X102.327 Y86.72 Z24.12
G0 F6000 X99.916 Y87.256
G0 X99.919 Y88.791
G0 X56.411 Y88.78
G0 X55.45 Y87.277
G0 X54.385 Y87.278
G0 X53.916 Y87.256
G0 X54.048 Y87.527
;TIME_ELAPSED:7164.027667
;LAYER:107
;TYPE:WALL-INNER
;MESH:terrarium_radiator_enclosure.stl
G1 F2700 E3871.17984
G1 F1800 X54.047 Y86.122 E3871.23368
G1 X54.345 Y85.827 E3871.24974
G1 X51.071 Y82.552 E3871.42718
G1 X50.896 Y82.216 E3871.44169
G1 X50.896 Y59.127 E3872.32636
G1 X51.071 Y58.702 E3872.34397
G1 X55.071 Y54.702 E3872.56072
G1 X55.407 Y54.527 E3872.57524
G1 X56.278 Y54.527 E3872.60861
G1 X56.277 Y53.727 E3872.63926
G1 X52.37 Y53.731 E3872.78896
G1 X51.997 Y53.771 E3872.80334
G1 X51.639 Y53.887 E3872.81775
G1 X51.289 Y54.043 E3872.83244
G1 X50.989 Y54.263 E3872.84669
G1 X50.801 Y54.432 E3872.85638
G1 X50.632 Y54.62 E3872.86606
G1 X50.412 Y54.92 E3872.88032
G1 X50.256 Y55.27 E3872.895
G1 X50.139 Y55.632 E3872.90958
G1 X50.101 Y56.001 E3872.92379
G1 X50.101 Y85.253 E3874.0446
G1 X50.139 Y85.624 E3874.05889
G1 X50.277 Y86.048 E3874.07597
G1 X50.42 Y86.33 E3874.08809
G1 X50.707 Y86.724 E3874.10677
G1 X50.938 Y86.955 E3874.11928
G1 X51.301 Y87.217 E3874.13644
G1 X51.635 Y87.366 E3874.15045
G1 X51.939 Y87.464 E3874.16269
G1 X52.308 Y87.523 E3874.177
G1 X54.048 Y87.527 E3874.24367
G1 F2700 E3871.74367
G0 F6000 X53.778 Y87.256
G0 X54.219 Y85.699
G0 X55.008 Y85.926
;TYPE:WALL-OUTER
G1 F2700 E3874.24367
G1 F1800 X51.354 Y82.269 E3874.44175
G1 X51.298 Y82.162 E3874.44638
G1 X51.296 Y59.127 E3875.32898
G1 X51.354 Y58.985 E3875.33486
G1 X55.354 Y54.985 E3875.55161
G1 X55.461 Y54.929 E3875.55623
G1 X56.678 Y54.927 E3875.60286
G1 X56.677 Y53.327 E3875.66417
G1 X52.349 Y53.331 E3875.83
G1 X52.054 Y53.362 E3875.84136
G1 X51.781 Y53.42 E3875.85206
G1 X51.495 Y53.513 E3875.86358
G1 X51.219 Y53.637 E3875.87517
G1 X50.973 Y53.778 E3875.88604
G1 X50.737 Y53.952 E3875.89727
G1 X50.517 Y54.148 E3875.90856
G1 X50.321 Y54.368 E3875.91985
G1 X50.147 Y54.604 E3875.93109
G1 X50.006 Y54.85 E3875.94195
G1 X49.882 Y55.126 E3875.95354
G1 X49.787 Y55.42 E3875.96538
G1 X49.731 Y55.685 E3875.97576
G1 X49.701 Y55.98 E3875.98712
G1 X49.701 Y85.274 E3877.10954
G1 X49.731 Y85.57 E3877.12094
G1 X49.787 Y85.835 E3877.13132
G1 X49.906 Y86.202 E3877.1461
G1 X50.074 Y86.531 E3877.16025
G1 X50.227 Y86.765 E3877.17097
G1 X50.409 Y86.992 E3877.18212
G1 X50.678 Y87.261 E3877.19669
G1 X50.981 Y87.479 E3877.21099
G1 X51.224 Y87.62 E3877.22176
G1 X51.491 Y87.74 E3877.23297
G1 X51.846 Y87.854 E3877.24726
G1 X52.276 Y87.923 E3877.26395
G1 X54.448 Y87.927 E3877.34717
G1 X54.447 Y86.125 E3877.41621
G1 X54.647 Y85.927 E3877.427
