;FLAVOR:Marlin
;TIME:10051
;Filament used: 5.57972m
;Layer height: 0.2
;MINX:47.819
;MINY:51.451
;MINZ:0.2
;MAXX:106.173
;MAXY:89.804
;MAXZ:39.8
;Generated with Cura_SteamEngine 5.4.0
M140 S65
M105
M190 S65
M104 S210
M105
M109 S210
M82 ;absolute extrusion mode
; Ender 3 Custom Start G-code
G92 E0 ; Reset Extruder
G28 ; Home all axes
G1 Z2.0 F3000 ; Move Z Axis up little to prevent scratching of Heat Bed
G1 X0.1 Y20 Z0.3 F5000.0 ; Move to start position
G1 X0.1 Y180.0 Z0.3 F1500.0 E15 ; Draw the first line
G1 X0.4 Y180.0 Z0.3 F5000.0 ; Move to side a little
G1 X0.4 Y20 Z0.3 F1500.0 E30 ; Draw the second line
G92 E0 ; Reset Extruder
G1 Z2.0 F3000 ; Move Z Axis up little to prevent scratching of Heat Bed
G1 X5 Y20 Z0.3 F5000.0 ; Move over to prevent blob squish
G92 E0
G92 E0
G1 F2700 E-2.5
;LAYER_COUNT:181
;LAYER:0
M107
G0 F6000 X49.442 Y52.599 Z0.2
;TYPE:SKIRT
G1 F2700 E0
G1 F1200 X49.886 Y52.263 E0.01778
G1 X50.169 Y52.1 E0.02821
G1 X50.573 Y51.894 E0.04269
G1 X51.128 Y51.667 E0.06183
G1 X51.711 Y51.526 E0.08098
G1 X52.372 Y51.461 E0.10219
G1 X52.852 Y51.451 E0.11752
G1 X100.959 Y51.455 E1.65356
G1 X101.654 Y51.465 E1.67576
G1 X102.246 Y51.524 E1.69475
G1 X102.675 Y51.629 E1.70886
G1 X103.162 Y51.786 E1.72519
G1 X103.686 Y52.007 E1.74335
G1 X104.161 Y52.3 E1.76117
G1 X104.446 Y52.532 E1.77291
G1 X104.874 Y52.92 E1.79135
G1 X105.221 Y53.287 E1.80748
G1 X105.577 Y53.81 E1.82768
G1 X105.812 Y54.317 E1.84552
G1 X105.926 Y54.681 E1.8577
G1 X106.043 Y55.141 E1.87286
G1 X106.153 Y55.958 E1.89918
G1 X106.173 Y56.986 E1.93201
G1 X106.173 Y84.605 E2.81388
G1 X106.163 Y85.303 E2.83616
G1 X106.104 Y85.896 E2.85519
G1 X105.992 Y86.346 E2.87
G1 X105.878 Y86.703 E2.88197
G1 X105.648 Y87.256 E2.90109
G1 X105.372 Y87.71 E2.91805
G1 X105.175 Y87.984 E2.92883
G1 X104.806 Y88.423 E2.94714
G1 X104.239 Y88.882 E2.97043
G1 X103.829 Y89.149 E2.98605
G1 X103.291 Y89.432 E3.00546
G1 X102.644 Y89.641 E3.02717
G1 X102.331 Y89.707 E3.03739
G1 X101.672 Y89.783 E3.05857
G1 X100.573 Y89.804 E3.09367
G1 X52.984 Y89.804 E4.61317
G1 X52.278 Y89.793 E4.63572
G1 X51.68 Y89.732 E4.65491
G1 X51.147 Y89.592 E4.6725
G1 X50.835 Y89.483 E4.68306
G1 X50.293 Y89.241 E4.70201
G1 X49.961 Y89.035 E4.71449
G1 X49.645 Y88.81 E4.72687
G1 X49.211 Y88.441 E4.74506
G1 X48.853 Y88.027 E4.76254
G1 X48.628 Y87.72 E4.77469
G1 X48.328 Y87.224 E4.7932
G1 X48.081 Y86.59 E4.81492
G1 X47.952 Y86.114 E4.83067
G1 X47.854 Y85.57 E4.84832
G1 X47.835 Y85.27 E4.85792
G1 X47.819 Y84.357 E4.88707
G1 X47.819 Y56.722 E5.76945
G1 X47.832 Y55.994 E5.7927
G1 X47.94 Y55.204 E5.81816
G1 X48.064 Y54.723 E5.83402
G1 X48.227 Y54.245 E5.85015
G1 X48.518 Y53.694 E5.87004
G1 X48.745 Y53.378 E5.88247
G1 X49.046 Y53.008 E5.89769
G1 X49.442 Y52.599 E5.91587
G0 F6000 X49.685 Y52.917
G1 F1200 X50.086 Y52.61 E5.932
G1 X50.369 Y52.447 E5.94243
G1 X50.755 Y52.25 E5.95626
G1 X51.222 Y52.056 E5.97241
G1 X51.805 Y51.915 E5.99156
G1 X52.38 Y51.861 E6.01
G1 X52.852 Y51.851 E6.02508
G1 X100.953 Y51.855 E7.56093
G1 X101.648 Y51.865 E7.58312
G1 X102.151 Y51.913 E7.59925
G1 X102.58 Y52.018 E7.61336
G1 X103.01 Y52.156 E7.62778
G1 X103.478 Y52.348 E7.64393
G1 X103.909 Y52.611 E7.66005
G1 X104.178 Y52.829 E7.6711
G1 X104.583 Y53.195 E7.68853
G1 X104.93 Y53.562 E7.70466
G1 X105.215 Y53.98 E7.72081
G1 X105.43 Y54.437 E7.73694
G1 X105.538 Y54.78 E7.74842
G1 X105.655 Y55.24 E7.76358
G1 X105.753 Y55.966 E7.78697
G1 X105.773 Y56.994 E7.8198
G1 X105.773 Y84.599 E8.70122
G1 X105.763 Y85.297 E8.72351
G1 X105.716 Y85.8 E8.73964
G1 X105.611 Y86.224 E8.75359
G1 X105.497 Y86.581 E8.76555
G1 X105.306 Y87.049 E8.78169
G1 X105.047 Y87.476 E8.79764
G1 X104.85 Y87.75 E8.80841
G1 X104.524 Y88.136 E8.82455
G1 X103.987 Y88.571 E8.84661
G1 X103.612 Y88.813 E8.86086
G1 X103.167 Y89.052 E8.87699
G1 X102.559 Y89.25 E8.89741
G1 X102.284 Y89.31 E8.90639
G1 X101.664 Y89.383 E8.92633
G1 X100.565 Y89.404 E8.96143
G1 X52.99 Y89.404 E10.48048
G1 X52.284 Y89.393 E10.50303
G1 X51.781 Y89.345 E10.51916
G1 X51.279 Y89.214 E10.53573
G1 X50.967 Y89.105 E10.54628
G1 X50.504 Y88.901 E10.56243
G1 X50.172 Y88.695 E10.57491
G1 X49.901 Y88.503 E10.58551
G1 X49.513 Y88.179 E10.60165
G1 X49.175 Y87.79 E10.61811
G1 X48.968 Y87.509 E10.62925
G1 X48.701 Y87.079 E10.64541
G1 X48.454 Y86.445 E10.66714
G1 X48.345 Y86.041 E10.6805
G1 X48.253 Y85.544 E10.69664
G1 X48.235 Y85.263 E10.70563
G1 X48.219 Y84.35 E10.73479
G1 X48.219 Y56.728 E11.61675
G1 X48.229 Y56.047 E11.63849
G1 X48.328 Y55.303 E11.66246
G1 X48.443 Y54.852 E11.67732
G1 X48.606 Y54.374 E11.69345
G1 X48.843 Y53.927 E11.7096
G1 X49.056 Y53.63 E11.72127
G1 X49.336 Y53.284 E11.73548
G1 X49.685 Y52.917 E11.75165
G1 F2700 E9.25165
;MESH:terrarium_radiator_enclosure.stl
G0 F6000 X54.854 Y58.415
G0 X57.1 Y60.163
;TYPE:WALL-INNER
G1 F2700 E11.75165
G1 F1200 X56.799 Y60.243 E11.7616
G1 X55.068 Y60.243 E11.81687
G1 X54.694 Y60.091 E11.82976
G1 X54.571 Y59.938 E11.83603
G1 X54.411 Y59.567 E11.84893
G1 X54.424 Y59.303 E11.85737
G1 X54.516 Y59.111 E11.86417
G1 X54.719 Y58.835 E11.8751
G1 X54.987 Y58.538 E11.88788
G1 X55.402 Y58.194 E11.90509
G1 X55.818 Y57.941 E11.92064
G1 X56.163 Y57.782 E11.93276
G1 X56.51 Y57.665 E11.94446
G1 X56.912 Y57.575 E11.95761
G1 X57.472 Y57.515 E11.97559
G1 X57.762 Y57.589 E11.98515
G1 X57.99 Y57.81 E11.99529
G1 X58.164 Y58.161 E12.0078
G1 X58.145 Y58.516 E12.01915
G1 X57.291 Y59.987 E12.07346
G1 X57.1 Y60.163 E12.08175
G1 F2700 E9.58175
G0 F6000 X57.44 Y60.09
G0 X57.824 Y60.311
G0 X61.457 Y62.678
G1 F2700 E12.08175
G1 F1200 X61.157 Y62.758 E12.09167
G1 X59.356 Y62.757 E12.14917
G1 X59.108 Y62.678 E12.15748
G1 X58.916 Y62.502 E12.1658
G1 X58.012 Y60.944 E12.22331
G1 X57.932 Y60.643 E12.23326
G1 X57.988 Y60.389 E12.24156
G1 X58.889 Y58.826 E12.29917
G1 X59.124 Y58.598 E12.30962
G1 X59.327 Y58.527 E12.31649
G1 X61.246 Y58.529 E12.37776
G1 X61.442 Y58.598 E12.3844
G1 X61.677 Y58.826 E12.39485
G1 X62.578 Y60.388 E12.45243
G1 X62.635 Y60.643 E12.46077
G1 X62.554 Y60.944 E12.47072
G1 X61.65 Y62.502 E12.52824
G1 X61.457 Y62.678 E12.53658
G1 F2700 E10.03658
G0 F6000 X62.71 Y61.037
G0 X63.375 Y60.32
G0 X65.814 Y60.163
G1 F2700 E12.53658
G1 F1200 X65.514 Y60.243 E12.54649
G1 X63.713 Y60.242 E12.604
G1 X63.466 Y60.163 E12.61228
G1 X63.273 Y59.987 E12.62062
G1 X62.418 Y58.513 E12.67503
G1 X62.398 Y58.161 E12.68628
G1 X62.563 Y57.822 E12.69832
G1 X62.764 Y57.617 E12.70749
G1 X62.998 Y57.527 E12.71549
G1 X66.199 Y57.527 E12.8177
G1 X66.517 Y57.617 E12.82825
G1 X66.717 Y57.822 E12.8374
G1 X66.882 Y58.161 E12.84944
G1 X66.862 Y58.515 E12.86076
G1 X66.007 Y59.987 E12.91511
G1 X65.814 Y60.163 E12.92345
G1 F2700 E10.42345
G0 F6000 X66.156 Y60.09
G0 X66.538 Y60.311
G0 X70.171 Y62.678
G1 F2700 E12.92345
G1 F1200 X69.871 Y62.758 E12.93336
G1 X68.07 Y62.757 E12.99087
G1 X67.823 Y62.678 E12.99915
G1 X67.63 Y62.502 E13.00749
G1 X66.726 Y60.944 E13.065
G1 X66.646 Y60.643 E13.07495
G1 X66.702 Y60.388 E13.08328
G1 X67.603 Y58.826 E13.14086
G1 X67.838 Y58.598 E13.15132
G1 X68.037 Y58.528 E13.15805
G1 X69.96 Y58.529 E13.21945
G1 X70.156 Y58.598 E13.22609
G1 X70.391 Y58.826 E13.23654
G1 X71.292 Y60.388 E13.29412
G1 X71.349 Y60.643 E13.30246
G1 X71.268 Y60.944 E13.31241
G1 X70.364 Y62.502 E13.36993
G1 X70.171 Y62.678 E13.37827
G1 F2700 E10.87827
G0 F6000 X71.424 Y61.037
G0 X72.089 Y60.32
G0 X74.528 Y60.163
G1 F2700 E13.37827
G1 F1200 X74.228 Y60.243 E13.38818
G1 X72.427 Y60.242 E13.44569
G1 X72.18 Y60.163 E13.45397
G1 X71.987 Y59.987 E13.46231
G1 X71.132 Y58.513 E13.51672
G1 X71.112 Y58.161 E13.52797
G1 X71.277 Y57.822 E13.54001
G1 X71.478 Y57.617 E13.54918
G1 X71.712 Y57.527 E13.55718
G1 X74.913 Y57.527 E13.65939
G1 X75.231 Y57.617 E13.66994
G1 X75.431 Y57.822 E13.67909
G1 X75.596 Y58.161 E13.69113
G1 X75.576 Y58.515 E13.70245
G1 X74.721 Y59.987 E13.7568
G1 X74.528 Y60.163 E13.76514
G1 F2700 E11.26514
G0 F6000 X74.87 Y60.09
G0 X75.252 Y60.311
G0 X78.885 Y62.678
G1 F2700 E13.76514
G1 F1200 X78.585 Y62.758 E13.77506
G1 X76.784 Y62.757 E13.83256
G1 X76.537 Y62.678 E13.84084
G1 X76.344 Y62.502 E13.84918
G1 X75.44 Y60.944 E13.9067
G1 X75.36 Y60.643 E13.91664
G1 X75.416 Y60.388 E13.92498
G1 X76.317 Y58.826 E13.98255
G1 X76.552 Y58.598 E13.99301
G1 X76.751 Y58.528 E13.99974
G1 X78.674 Y58.529 E14.06114
G1 X78.87 Y58.598 E14.06778
G1 X79.105 Y58.826 E14.07823
G1 X80.006 Y60.388 E14.13581
G1 X80.063 Y60.643 E14.14415
G1 X79.982 Y60.944 E14.15411
G1 X79.078 Y62.502 E14.21162
G1 X78.885 Y62.678 E14.21996
G1 F2700 E11.71996
G0 F6000 X80.244 Y60.643
G0 X80.803 Y60.32
G0 X83.242 Y60.163
G1 F2700 E14.21996
G1 F1200 X82.942 Y60.243 E14.22987
G1 X81.141 Y60.242 E14.28738
G1 X80.894 Y60.163 E14.29566
G1 X80.701 Y59.987 E14.304
G1 X79.846 Y58.513 E14.35841
G1 X79.826 Y58.161 E14.36967
G1 X79.991 Y57.822 E14.3817
G1 X80.191 Y57.617 E14.39085
G1 X80.426 Y57.527 E14.39888
G1 X83.627 Y57.527 E14.50109
G1 X83.945 Y57.617 E14.51164
G1 X84.146 Y57.825 E14.52088
G1 X84.31 Y58.161 E14.53282
G1 X84.29 Y58.515 E14.54414
G1 X83.435 Y59.987 E14.59849
G1 X83.242 Y60.163 E14.60683
G1 F2700 E12.10683
G0 F6000 X83.584 Y60.09
G0 X83.966 Y60.311
G0 X87.599 Y62.678
G1 F2700 E14.60683
G1 F1200 X87.299 Y62.758 E14.61675
G1 X85.498 Y62.757 E14.67425
G1 X85.251 Y62.678 E14.68253
G1 X85.058 Y62.502 E14.69087
G1 X84.154 Y60.944 E14.74839
G1 X84.074 Y60.643 E14.75833
G1 X84.13 Y60.388 E14.76667
G1 X85.031 Y58.826 E14.82424
G1 X85.266 Y58.598 E14.8347
G1 X85.465 Y58.528 E14.84143
G1 X87.388 Y58.529 E14.90283
G1 X87.584 Y58.598 E14.90947
G1 X87.819 Y58.826 E14.91992
G1 X88.72 Y60.388 E14.9775
G1 X88.777 Y60.643 E14.98584
G1 X88.696 Y60.944 E14.9958
G1 X87.792 Y62.502 E15.05331
G1 X87.599 Y62.678 E15.06165
G1 F2700 E12.56165
G0 F6000 X88.958 Y60.643
G0 X89.517 Y60.32
G0 X91.956 Y60.163
G1 F2700 E15.06165
G1 F1200 X91.656 Y60.243 E15.07156
G1 X89.855 Y60.242 E15.12907
G1 X89.608 Y60.163 E15.13735
G1 X89.415 Y59.987 E15.14569
G1 X88.56 Y58.513 E15.2001
G1 X88.54 Y58.161 E15.21136
G1 X88.705 Y57.823 E15.22337
G1 X88.905 Y57.617 E15.23253
G1 X89.14 Y57.527 E15.24057
G1 X92.341 Y57.527 E15.34277
G1 X92.659 Y57.617 E15.35333
G1 X92.86 Y57.825 E15.36256
G1 X93.024 Y58.161 E15.3745
G1 X93.004 Y58.515 E15.38582
G1 X92.149 Y59.987 E15.44018
G1 X91.956 Y60.163 E15.44852
G1 F2700 E12.94852
G0 F6000 X92.298 Y60.09
G0 X92.68 Y60.311
G0 X96.313 Y62.678
G1 F2700 E15.44852
G1 F1200 X96.013 Y62.758 E15.45843
G1 X94.212 Y62.757 E15.51594
G1 X93.965 Y62.678 E15.52422
G1 X93.772 Y62.502 E15.53256
G1 X92.868 Y60.944 E15.59007
G1 X92.788 Y60.643 E15.60001
G1 X92.844 Y60.388 E15.60835
G1 X93.745 Y58.826 E15.66593
G1 X93.98 Y58.598 E15.67638
G1 X94.178 Y58.528 E15.68309
G1 X96.013 Y58.527 E15.74168
G1 X96.319 Y58.61 E15.7518
G1 X96.486 Y58.745 E15.75866
G1 X97.434 Y60.388 E15.81923
G1 X97.491 Y60.643 E15.82757
G1 X97.41 Y60.944 E15.83752
G1 X96.506 Y62.502 E15.89504
G1 X96.313 Y62.678 E15.90338
G1 F2700 E13.40338
G0 F6000 X97.391 Y60.643
G0 X97.317 Y59.785
G0 X97.663 Y59.584
G0 X97.784 Y58.77
G1 F2700 E15.90338
G1 F1200 X98.148 Y58.46 E15.91864
G1 X98.424 Y58.333 E15.92834
G1 X98.632 Y58.333 E15.93498
G1 X98.929 Y58.477 E15.94552
G1 X99.137 Y58.674 E15.95467
G1 X99.466 Y59.079 E15.97133
G1 X99.569 Y59.264 E15.97809
G1 X99.601 Y59.458 E15.98437
G1 X99.548 Y59.703 E15.99237
G1 X99.385 Y60.008 E16.00342
G1 X99.228 Y60.145 E16.01007
G1 X98.982 Y60.243 E16.01852
G1 X98.569 Y60.242 E16.03171
G1 X98.322 Y60.163 E16.03999
G1 X98.129 Y59.987 E16.04833
G1 X97.789 Y59.404 E16.06988
G1 X97.784 Y58.77 E16.09012
G1 F2700 E13.59012
G0 F6000 X97.75 Y59.537
G0 X98.555 Y60.422
G0 X98.555 Y60.845
G0 X99.837 Y65.169
G1 F2700 E16.09012
G1 F1200 X99.496 Y65.274 E16.10152
G1 X98.569 Y65.273 E16.13112
G1 X98.322 Y65.194 E16.1394
G1 X98.129 Y65.018 E16.14774
G1 X97.225 Y63.459 E16.20528
G1 X97.145 Y63.158 E16.21522
G1 X97.201 Y62.903 E16.22356
G1 X98.101 Y61.343 E16.28106
G1 X98.322 Y61.123 E16.29102
G1 X98.569 Y61.044 E16.2993
G1 X99.621 Y61.043 E16.33289
G1 X99.885 Y61.185 E16.34246
G1 X100.036 Y61.379 E16.35031
G1 X100.097 Y61.643 E16.35896
G1 X100.097 Y64.757 E16.45839
G1 X99.982 Y65.027 E16.46776
G1 X99.837 Y65.169 E16.47424
G1 F2700 E13.97424
G0 F6000 X100.197 Y64.688
G0 X99.924 Y65.102
G0 X98.231 Y65.351
G0 X97.672 Y65.674
G0 X96.313 Y67.709
G1 F2700 E16.47424
G1 F1200 X96.013 Y67.789 E16.48416
G1 X94.212 Y67.788 E16.54166
G1 X93.965 Y67.709 E16.54994
G1 X93.772 Y67.533 E16.55828
G1 X92.868 Y65.975 E16.6158
G1 X92.788 Y65.674 E16.62574
G1 X92.844 Y65.419 E16.63408
G1 X93.744 Y63.858 E16.69161
G1 X93.965 Y63.638 E16.70157
G1 X94.212 Y63.559 E16.70985
G1 X96.14 Y63.558 E16.77141
G1 X96.47 Y63.749 E16.78358
G1 X97.434 Y65.419 E16.84515
G1 X97.491 Y65.674 E16.85349
G1 X97.41 Y65.975 E16.86345
G1 X96.506 Y67.533 E16.92096
G1 X96.313 Y67.709 E16.9293
G1 F2700 E14.4293
G0 F6000 X96.655 Y67.636
G0 X97.037 Y67.857
G0 X99.837 Y70.2
G1 F2700 E16.9293
G1 F1200 X99.496 Y70.305 E16.94069
G1 X98.569 Y70.304 E16.97029
G1 X98.322 Y70.225 E16.97857
G1 X98.129 Y70.049 E16.98691
G1 X97.225 Y68.49 E17.04445
G1 X97.145 Y68.189 E17.0544
G1 X97.201 Y67.934 E17.06273
G1 X98.101 Y66.374 E17.12024
G1 X98.322 Y66.154 E17.1302
G1 X98.569 Y66.075 E17.13848
G1 X99.496 Y66.074 E17.16808
G1 X99.837 Y66.179 E17.17947
G1 X99.982 Y66.321 E17.18595
G1 X100.097 Y66.674 E17.1978
G1 X100.097 Y69.788 E17.29723
G1 X99.982 Y70.058 E17.3066
G1 X99.837 Y70.2 E17.31308
G1 F2700 E14.81308
G0 F6000 X100.197 Y69.719
G0 X99.924 Y70.133
G0 X98.231 Y70.382
G0 X97.672 Y70.705
G0 X96.313 Y72.74
G1 F2700 E17.31308
G1 F1200 X96.013 Y72.82 E17.323
G1 X94.212 Y72.819 E17.3805
G1 X93.965 Y72.74 E17.38878
G1 X93.772 Y72.564 E17.39712
G1 X92.868 Y71.006 E17.45464
G1 X92.788 Y70.705 E17.46458
G1 X92.844 Y70.45 E17.47292
G1 X93.744 Y68.889 E17.53045
G1 X93.965 Y68.669 E17.54041
G1 X94.212 Y68.59 E17.54869
G1 X96.14 Y68.589 E17.61025
G1 X96.47 Y68.78 E17.62242
G1 X97.434 Y70.45 E17.68399
G1 X97.491 Y70.705 E17.69233
G1 X97.41 Y71.006 E17.70229
G1 X96.506 Y72.564 E17.7598
G1 X96.313 Y72.74 E17.76814
G1 F2700 E15.26814
G0 F6000 X96.655 Y72.667
G0 X97.037 Y72.888
G0 X99.837 Y75.231
G1 F2700 E17.76814
G1 F1200 X99.496 Y75.336 E17.77953
G1 X98.569 Y75.335 E17.80913
G1 X98.322 Y75.256 E17.81741
G1 X98.129 Y75.08 E17.82575
G1 X97.225 Y73.521 E17.88329
G1 X97.145 Y73.22 E17.89324
G1 X97.201 Y72.965 E17.90157
G1 X98.101 Y71.405 E17.95908
G1 X98.322 Y71.185 E17.96904
G1 X98.569 Y71.106 E17.97732
G1 X99.496 Y71.105 E18.00692
G1 X99.837 Y71.21 E18.01831
G1 X99.982 Y71.352 E18.02479
G1 X100.097 Y71.705 E18.03664
G1 X100.097 Y74.819 E18.13607
G1 X99.982 Y75.089 E18.14544
G1 X99.837 Y75.231 E18.15192
G1 F2700 E15.65192
G0 F6000 X100.197 Y74.75
G0 X99.924 Y75.164
G0 X98.231 Y75.413
G0 X97.672 Y75.736
G0 X96.313 Y77.771
G1 F2700 E18.15192
G1 F1200 X96.013 Y77.851 E18.16184
G1 X94.212 Y77.85 E18.21934
G1 X93.965 Y77.771 E18.22762
G1 X93.772 Y77.595 E18.23596
G1 X92.868 Y76.037 E18.29348
G1 X92.788 Y75.736 E18.30342
G1 X92.844 Y75.481 E18.31176
G1 X93.744 Y73.92 E18.36929
G1 X93.965 Y73.7 E18.37925
G1 X94.212 Y73.621 E18.38753
G1 X96.14 Y73.62 E18.44909
G1 X96.47 Y73.811 E18.46126
G1 X97.434 Y75.481 E18.52283
G1 X97.491 Y75.736 E18.53117
G1 X97.41 Y76.037 E18.54113
G1 X96.506 Y77.595 E18.59864
G1 X96.313 Y77.771 E18.60698
G1 F2700 E16.10698
G0 F6000 X96.655 Y77.698
G0 X97.037 Y77.919
G0 X99.619 Y80.367
G1 F2700 E18.60698
G1 F1200 X98.623 Y80.367 E18.63878
G1 X98.425 Y80.335 E18.64519
G1 X98.129 Y80.111 E18.65704
G1 X97.225 Y78.552 E18.71458
G1 X97.145 Y78.251 E18.72453
G1 X97.201 Y77.996 E18.73286
G1 X98.101 Y76.436 E18.79037
G1 X98.322 Y76.216 E18.80032
G1 X98.569 Y76.137 E18.8086
G1 X99.496 Y76.136 E18.8382
G1 X99.837 Y76.241 E18.8496
G1 X99.982 Y76.383 E18.85608
G1 X100.097 Y76.736 E18.86793
G1 X100.097 Y79.845 E18.9672
G1 X100.026 Y80.05 E18.97413
G1 X99.857 Y80.248 E18.98244
G1 X99.619 Y80.367 E18.99093
G1 F2700 E16.49093
G0 F6000 X98.366 Y80.506
G0 X97.658 Y80.917
G0 X96.089 Y82.883
G1 F2700 E18.99093
G1 F1200 X94.188 Y82.883 E19.05163
G1 X93.91 Y82.768 E19.06124
G1 X93.745 Y82.584 E19.06913
G1 X92.868 Y81.068 E19.12505
G1 X92.788 Y80.767 E19.135
G1 X92.844 Y80.512 E19.14333
G1 X93.744 Y78.951 E19.20087
G1 X93.965 Y78.731 E19.21082
G1 X94.212 Y78.652 E19.2191
